assets/icon-plant.svg

<svg
  class="icon icon-accordion icon-plant"

  focusable="false"
  xmlns="http://www.w3.org/2000/svg"


  viewBox="0 0 20 20"
>
  <path d="M15.9633 5.16568C16.1818 5.33464 16.2219 5.64867 16.0529 5.86709L11.2315 12.1C10.7573 12.7132 10.5 13.4664 10.5 14.2415L10.5 17.728C10.5 18.0041 10.2761 18.228 9.99998 18.228C9.72384 18.228 9.49998 18.0041 9.49998 17.728L9.49997 14.2415C9.49997 13.2449 9.8308 12.2765 10.4406 11.4882L15.2619 5.25525C15.4309 5.03683 15.7449 4.99673 15.9633 5.16568Z" />
  <path d="M4.13656 9.11047C3.94637 9.31067 3.95448 9.62715 4.15469 9.81735L8.41061 13.8605C9.10616 14.5213 9.49997 15.4386 9.49997 16.398V19.5C9.49997 19.7761 9.72383 20 9.99997 20C10.2761 20 10.5 19.7761 10.5 19.5V16.398C10.5 15.1645 9.99364 13.9851 9.09936 13.1355L4.84344 9.09235C4.64324 8.90216 4.32676 8.91027 4.13656 9.11047Z" />
  <path d="M18.3779 1.53927C18.4327 2.29021 18.4725 3.32703 18.4047 4.40738C18.3125 5.87411 18.0299 7.25745 17.4545 8.14562C16.7167 9.28439 15.6883 9.90008 14.7112 10.1459C13.6919 10.4023 12.8474 10.2333 12.4595 9.98203C11.6151 9.43502 10.6657 7.26257 12.1639 4.95007C12.7171 4.09609 13.9498 3.29603 15.4075 2.63437C16.4929 2.1417 17.5917 1.77412 18.3779 1.53927ZM18.7295 0.399095C19.0125 0.322287 19.2884 0.513872 19.3179 0.805582C19.4683 2.2906 19.735 6.46465 18.2937 8.68934C16.5205 11.4265 13.2903 11.7118 11.9158 10.8213C10.5413 9.93084 9.57124 7.11282 11.3246 4.40636C12.7665 2.18066 17.2 0.814295 18.7295 0.399095Z" fill-rule="evenodd" />
  <path d="M1.16197 6.23639C1.24915 6.80305 1.38541 7.51404 1.5922 8.22877C1.89834 9.28691 2.31835 10.2055 2.84189 10.729C3.54804 11.4352 4.37904 11.7175 5.11404 11.7439C5.89258 11.7719 6.44282 11.5154 6.64245 11.3158C7.09947 10.8588 7.49486 9.18578 6.0474 7.73833C5.55144 7.24237 4.58274 6.85006 3.40831 6.58298C2.60103 6.3994 1.79173 6.29511 1.16197 6.23639ZM0.569611 5.18777C0.276949 5.16998 0.0467941 5.41364 0.080866 5.70486C0.226586 6.95034 0.719124 10.0205 2.13478 11.4362C3.93434 13.2357 6.44588 12.9266 7.34955 12.0229C8.25323 11.1193 8.53389 8.8106 6.75451 7.03122C5.33581 5.61253 1.90298 5.26882 0.569611 5.18777Z" fill-rule="evenodd" />
</svg>

<svg xmlns="http://www.w3.org/2000/svg" class="icon icon-accordion icon-plant" viewBox="0 0 20 20"><path d="M15.963 5.166a.5.5 0 0 1 .09.701L11.232 12.1a3.5 3.5 0 0 0-.732 2.142v3.486a.5.5 0 0 1-1 0v-3.487a4.5 4.5 0 0 1 .94-2.753l4.822-6.233a.5.5 0 0 1 .701-.09"/><path d="M4.137 9.11a.5.5 0 0 0 .018.707l4.256 4.044A3.5 3.5 0 0 1 9.5 16.398V19.5a.5.5 0 0 0 1 0v-3.102a4.5 4.5 0 0 0-1.4-3.262L4.842 9.092a.5.5 0 0 0-.706.018"/><path fill-rule="evenodd" d="M18.378 1.54c.055.75.095 1.787.027 2.867-.093 1.467-.375 2.85-.95 3.739-.738 1.138-1.767 1.754-2.744 2-1.02.256-1.864.087-2.251-.164-.845-.547-1.794-2.72-.296-5.032.553-.854 1.786-1.654 3.244-2.316a24 24 0 0 1 2.97-1.095M18.73.4a.465.465 0 0 1 .588.406c.15 1.485.417 5.659-1.024 7.883-1.774 2.738-5.004 3.023-6.378 2.132-1.375-.89-2.345-3.708-.591-6.415C12.767 2.181 17.2.814 18.73.4M1.162 6.236c.087.567.223 1.278.43 1.993.306 1.058.726 1.977 1.25 2.5.706.706 1.537.989 2.272 1.015.779.028 1.329-.229 1.528-.428.457-.457.853-2.13-.595-3.578-.496-.496-1.464-.888-2.639-1.155a18 18 0 0 0-2.246-.347M.57 5.188a.46.46 0 0 0-.49.517c.147 1.245.64 4.316 2.055 5.731 1.8 1.8 4.31 1.49 5.215.587.903-.904 1.184-3.212-.595-4.992C5.335 5.613 1.903 5.27.57 5.188"/></svg>
